X:162
T:Partridge, The
M:C|
L:1/8
B:Thompson's Compleat Collection of 200 Favourite Country Dances, vol. 1 (London, 1757)
Z:Transcribed and edited by Flynn Titford-Mock, 2007
Z:abc's:AK/Fiddler's Companion
K:G
g2g2 dg g2|face dBAG|g2g2 gbag|faA^c d2 D2:|
|:{e}d2 cB cfad|{d}c2 BA BdgB|cBAG Fedc|BdDF G2 G,2:|

